X: 38925
T: Supple Dancer, The
R: hornpipe
M: 4/4
K: Gmajor
BdGB cAFA|afge dcBA|BdGB cBAG|FAd^c ed=cA|
BdGB cAFA|afge dcBA|BdGB cAFA|G2 g2 G2:|
d2 g2 f2 e2|dBcA G2 FD|Eedc BAGF|AFGE D2 Bc|
dGgG fGeG|dGcA BGFD|E2 ec BAGF|A2 G2 G2:|

